X: 1527
T: Harry McQueen's Set Tune
B: australian traditional tunes wiki
M:6/8
L:1/8
R: Set Tune
Q: 3/8=100
K:G
V:1 
|:D|"G"D2D DED|G2AB3|"D7"c2BA2G|F2ED3|"G"D2D DED|G2AB3|"D7"c2A FAF|"G"G2z Gz:|
|:d|"G"d3B3|GBGD3|"D7"c3A3|FAFD3|"G"d3B3|GBGD3|"D7"c2A FGA|"G"G2z G2z:|
% abcbook-tune_id 6342d53a7a62d0e899cff78e


% abcbook-boost 0
% abcbook-tablature 
% abcbook-transpose 
% abcbook-lastupdated 1665324369450
% abcbook-soundfonts 
% abcbook-repeats 1
% NFF Book 2013

